Obsidian-SemiLight/actions/24s/im-msn.svg

<svg viewBox="0 0 24 24" xmlns="http://www.w3.org/2000/svg"><path d="m4 4v7h7v-7zm9 0v7h7v-7zm-9 9v7h7v-7zm9 0v7h7v-7z" fill="#4d4d4d"/></svg>

<svg xmlns="http://www.w3.org/2000/svg" viewBox="0 0 24 24">
  <defs id="defs3051">
    <style type="text/css" id="current-color-scheme">
      .ColorScheme-Text {
        color:#4d4d4d;
      }
      </style>
  </defs>
 <path style="fill:currentColor;fill-opacity:1;stroke:none" 
     d="M 4 4 L 4 11 L 11 11 L 11 4 L 4 4 z M 13 4 L 13 11 L 20 11 L 20 4 L 13 4 z M 4 13 L 4 20 L 11 20 L 11 13 L 4 13 z M 13 13 L 13 20 L 20 20 L 20 13 L 13 13 z "
     class="ColorScheme-Text"
     />
</svg>
